!!!COM: Felix Mendelssohn
!!!CNT: Deutsch
!!!TXO: Deutsch
!!!OTL: Der Mond
!!!LYR: Geibel
!!!OPS: Op. 86
!!!ONM: No. 5
!!!ENC: Daniel Alt & Leigh VanHandel
!!!YOR: Sa2mmtliche Lieder fu2r eine Singstimme
!!!YOR: Neu revidirt von Dr. L. Benda, Ausgabe fu2r mittlere Stimme
!!!YOR: Braunschweig. Henry Litolff's Verlag. Boston and New York: Arthur P. Schmidt.
!!!ODT: 1850/
!!NB: Date is publication date
**kern	**silbe
*staff1	*
=1-	=1
*clefG2	*
*k[b-e-a-d-g-]	*
*M3/4	*
2r	.
4r	.
=2	=2
4r	.
4r	.
8.r	.
{16a-	{Mein
=3	=3
8a-	Herz
8a-	ist
8a-	wie
8a-	die
8b-	dun-
8a-	-kle
=4	=4
4.dd-	Nacht,
8dd-	wenn
8b-	al-
8gn	-le
=5	=5
8a-	Wi-
8a-	-pfel
4b-	rau-
4a-}	-schen;}
=6	=6
4r	.
4r	.
8r	.
{8g-	{da
=7	=7
8f	steigt
8f	der
8f	Mond
8f	in
8.cc	vol-
16gn	-ler
=8	=8
4.a-	Pracht
8a-	aus
8.dd-	Wol-
16an	-ken
=9	=9
2b-}	sacht,}
{4g-	{und
=10	=10
8e-	sieh!
8gn	der
8b-	Wald
8dd-	ver-
8cc	-stummt
8b-	in
=11	=11
8a-	tie-
8gn	-fem
4.g-	Lau-
8f	|
=12	=12
4d-}	-schen.}
4r	.
4r	.
=13	=13
4r	.
4r	.
8.r	.
{16a-	{Der
=14	=14
8a-	Mond,
8a-	der
8a-	lich-
8a-	-te
8b-	Mond
8a-	bist
=15	=15
4.dd-	du
8dd-	in
8b-	dei-
8gn	-ner
=16	=16
8a-	Lie-
8a-	-bes-
8cc	-fu2l-
8b-	|
4a-}	-le,}
=17	=17
4r	.
4r	.
8r	.
{8g-	{wirf
=18	=18
8f	ei-
8f	-nen,
8f	ei-
8f	-nen
8.cc	Blick
16gn	mir
=19	=19
4.a-}	zu}
{8a-	{voll
8.dd-	Him-
16an	-mels-
=20	=20
4.b-	-ruh’,
8b-	voll
8.ff	Him-
16cc	-mils-
=21	=21
2dd-}	-ruh’,}
{4b-	{und
=22	=22
8e-	sieh!
8gn	dies
8b-	un-
8dd-	-ge-
8cc	-stu2-
8b-	-me
=23	=23
8a-	Herz
8gn	wird
4.g-	stil-
8f	|
=24	=24
4d-}	-le,}
4r	.
8r	.
{8a-	{und
=25	=25
[2.dd-	sieh!
=26	=26
8dd-]	|
8dd-	dies
8cc	un-
8b-	-ge-
8a-	-stu2-
8gn	-me
=27	=27
8g-	Herz
8e-	wird
4.g-	stil-
8f	|
=28	=28
2d-}	-le.}
4r	.
==	==
*-	*-
